X: 13122
T: Widow are you wakeing
%R: air, march, reel
B: James Oswald "The Caledonian Pocket Companion" v.1 b.3 p.12 #2
S: https://ia800501.us.archive.org/18/items/caledonianpocket01rugg/caledonianpocket01rugg_bw.pdf
Z: 2020 John Chambers <jc:trillian.mit.edu>
M: C
L: 1/8
K: G
%%slurgraces 1
%%graceslurs 1
|: "_Slow"\
G3 A (BA)B.d | e2A2 {B}A2GE | G3A (Bd)(AB) | G4 {E}D4 |\
c3d (BAB).d | e2A2 {B}A2(GE) | G2(ge) (dB)(AB) | G4 {E}D4 :|
|:\
g3a (ga)(bg) | {ga}b2a2 {b}a2(ge) | (de)(ga) (bg)(ab) | g4 d2(ga) |\
(ba)(ge) (ge)(dB) | (cB)(AG) A2(GE) | g>age dBAB | G4 {E}D4 :|
|:\
(G/A/B) (.B.B) TB3d | (eg)(dB) {B}A2(GE) |\
(e/f/g) .g.g d<B A>B | G4 D2 (F//E//D//E//F//G//A//B//) |\
c3d (BAB).d |
(eg)(GB) {B}TA2(GE) |\
(b/a/)g (a/g/)e (d/e/d/B/) (c/B/A/B/) | G4 {E}D4 ::\
g/a/b .b.b b3(a/g/) | (d'b)(ag) Ta2ge |
(de)(ga) (b/a/g) ab | g4 d2g>a |\
(b/a/g) b2 (a/g/e/g/) a2 | (g/e/d/e/) (g/e/d/B/) TA2(GE) |\
{ga}b3a (g/e/d/B/) (d/B/A/B/) | G4 {E}D4 :|


